svg/material-icons/car_crash/materialiconsround/20px.svg

<svg xmlns="http://www.w3.org/2000/svg" width="20" height="20" viewBox="0 0 20 20"><path d="M19 5c0 2.21-1.79 4-4 4s-4-1.79-4-4 1.79-4 4-4 4 1.79 4 4zm-3.5 1.5c0-.28-.22-.5-.5-.5s-.5.22-.5.5.22.5.5.5.5-.22.5-.5zM16 16c.55 0 1-.45 1-1v-4.88a5.515 5.515 0 0 1-2.94.3 1.003 1.003 0 0 1-.56 1.83c-.55 0-1-.45-1-1 0-.51.39-.93.88-.99A5.605 5.605 0 0 1 10.39 8H5.02l1-2.5h3.51c-.06-.51-.02-1.11.06-1.5H6.02c-.62 0-1.17.37-1.4.94L3.11 8.73c-.07.18-.11.37-.11.56V15c0 .55.45 1 1 1s1-.45 1-1v-.5h10v.5c0 .55.45 1 1 1zm-9.5-3.75c-.55 0-1-.45-1-1s.45-1 1-1 1 .45 1 1-.45 1-1 1zm9-8.75c0-.28-.22-.5-.5-.5s-.5.22-.5.5v1c0 .28.22.5.5.5s.5-.22.5-.5v-1z"/></svg>

<svg xmlns="http://www.w3.org/2000/svg" enable-background="new 0 0 20 20" height="20" viewBox="0 0 20 20" width="20"><g><rect fill="none" height="20" width="20"/></g><g><g><path d="M19,5c0,2.21-1.79,4-4,4s-4-1.79-4-4s1.79-4,4-4S19,2.79,19,5z M15.5,6.5C15.5,6.22,15.28,6,15,6s-0.5,0.22-0.5,0.5 S14.72,7,15,7S15.5,6.78,15.5,6.5z M16,16c0.55,0,1-0.45,1-1v-4.88c-0.62,0.24-1.29,0.38-2,0.38c-0.32,0-0.64-0.03-0.94-0.08 c0.27,0.18,0.44,0.48,0.44,0.83c0,0.55-0.45,1-1,1c-0.55,0-1-0.45-1-1c0-0.51,0.39-0.93,0.88-0.99C12.14,9.87,11.09,9.06,10.39,8 H5.02l1-2.5h3.51C9.47,4.99,9.51,4.39,9.59,4H6.02C5.4,4,4.85,4.37,4.62,4.94L3.11,8.73C3.04,8.91,3,9.1,3,9.29L3,15 c0,0.55,0.45,1,1,1c0.55,0,1-0.45,1-1v-0.5h10V15C15,15.55,15.45,16,16,16z M6.5,12.25c-0.55,0-1-0.45-1-1s0.45-1,1-1 c0.55,0,1,0.45,1,1S7.05,12.25,6.5,12.25z M15.5,3.5C15.5,3.22,15.28,3,15,3s-0.5,0.22-0.5,0.5v1C14.5,4.78,14.72,5,15,5 s0.5-0.22,0.5-0.5V3.5z"/></g></g></svg>
